polaris-icons/icons/new-icons/ThemesMajor.svg

<svg width="20" height="20" viewBox="0 0 20 20" fill="none" xmlns="http://www.w3.org/2000/svg">
<path fill-rule="evenodd" clip-rule="evenodd" d="M7.25 3.5C5.17893 3.5 3.5 5.17893 3.5 7.25V12.75C3.5 14.8211 5.17893 16.5 7.25 16.5H12.75C14.8211 16.5 16.5 14.8211 16.5 12.75V7.25C16.5 5.17893 14.8211 3.5 12.75 3.5H7.25ZM5 7.25C5 6.00736 6.00736 5 7.25 5H10.5V8H5V7.25ZM12 5H12.75C13.9926 5 15 6.00736 15 7.25V11H12V5ZM12 12.5V15H12.75C13.9926 15 15 13.9926 15 12.75V12.5H12ZM10.5 9.5V15H7.25C6.00736 15 5 13.9926 5 12.75V9.5H10.5Z" fill="#4A4A4A"/>
</svg>

<svg viewBox="0 0 20 20" xmlns="http://www.w3.org/2000/svg"><path fill-rule="evenodd" d="M7.25 3.5a3.75 3.75 0 0 0-3.75 3.75v5.5a3.75 3.75 0 0 0 3.75 3.75h5.5a3.75 3.75 0 0 0 3.75-3.75v-5.5a3.75 3.75 0 0 0-3.75-3.75h-5.5Zm-2.25 3.75a2.25 2.25 0 0 1 2.25-2.25h3.25v3h-5.5v-.75Zm7-2.25h.75a2.25 2.25 0 0 1 2.25 2.25v3.75h-3v-6Zm0 7.5v2.5h.75a2.25 2.25 0 0 0 2.25-2.25v-.25h-3Zm-1.5-3v5.5h-3.25a2.25 2.25 0 0 1-2.25-2.25v-3.25h5.5Z" fill="#5C5F62"/></svg>
